app/assets/images/heroicons/micro/currency-euro.svg

<svg width="16" height="16" viewBox="0 0 16 16" fill="none" xmlns="http://www.w3.org/2000/svg">
<path fill-rule="evenodd" clip-rule="evenodd" d="M15 8C15 11.866 11.866 15 8 15C4.13401 15 1 11.866 1 8C1 4.13401 4.13401 1 8 1C11.866 1 15 4.13401 15 8ZM6.87465 6C6.96556 5.78033 7.07014 5.57995 7.18513 5.40223C7.59814 4.76396 8.07998 4.5 8.5 4.5C8.76385 4.5 9.03933 4.59932 9.31377 4.82506C9.63367 5.08819 10.1063 5.04218 10.3694 4.72228C10.6326 4.40239 10.5866 3.92975 10.2667 3.66661C9.77157 3.25937 9.16871 3 8.5 3C7.40123 3 6.50808 3.68744 5.92578 4.58736C5.65742 5.0021 5.44097 5.47976 5.28505 6H4.75C4.33579 6 4 6.33579 4 6.75C4 7.16421 4.33579 7.5 4.75 7.5H5.01692C5.00571 7.66487 5 7.8317 5 8C5 8.1683 5.00571 8.33513 5.01692 8.5H4.75C4.33579 8.5 4 8.83579 4 9.25C4 9.66421 4.33579 10 4.75 10H5.28505C5.44097 10.5202 5.65742 10.9979 5.92578 11.4126C6.50808 12.3126 7.40123 13 8.5 13C9.16871 13 9.77157 12.7406 10.2667 12.3334C10.5866 12.0703 10.6326 11.5976 10.3694 11.2777C10.1063 10.9578 9.63367 10.9118 9.31377 11.1749C9.03933 11.4007 8.76385 11.5 8.5 11.5C8.07998 11.5 7.59814 11.236 7.18513 10.5978C7.07014 10.42 6.96556 10.2197 6.87465 10H8.25C8.66421 10 9 9.66421 9 9.25C9 8.83579 8.66421 8.5 8.25 8.5H6.52124C6.50729 8.3373 6.5 8.17041 6.5 8C6.5 7.82959 6.50729 7.6627 6.52124 7.5H8.25C8.66421 7.5 9 7.16421 9 6.75C9 6.33579 8.66421 6 8.25 6H6.87465Z" fill="black"/>
</svg>

<svg xmlns="http://www.w3.org/2000/svg" viewBox="0 0 16 16" fill="currentColor" aria-hidden="true" data-slot="icon">
  <path fill-rule="evenodd" d="M15 8A7 7 0 1 1 1 8a7 7 0 0 1 14 0ZM6.875 6c.09-.22.195-.42.31-.598.413-.638.895-.902 1.315-.902.264 0 .54.1.814.325a.75.75 0 1 0 .953-1.158C9.772 3.259 9.169 3 8.5 3c-1.099 0-1.992.687-2.574 1.587A5.518 5.518 0 0 0 5.285 6H4.75a.75.75 0 0 0 0 1.5h.267a7.372 7.372 0 0 0 0 1H4.75a.75.75 0 0 0 0 1.5h.535c.156.52.372.998.64 1.413C6.509 12.313 7.402 13 8.5 13c.669 0 1.272-.26 1.767-.667a.75.75 0 0 0-.953-1.158c-.275.226-.55.325-.814.325-.42 0-.902-.264-1.315-.902a3.722 3.722 0 0 1-.31-.598H8.25a.75.75 0 0 0 0-1.5H6.521a5.854 5.854 0 0 1 0-1H8.25a.75.75 0 0 0 0-1.5H6.875Z" clip-rule="evenodd"/>
</svg>
